X:1
T:Title
%%score { ( 1 3 ) | 2 }
L:1/8
M:4/4
K:D
V:1 treble nm="Grand Piano"
V:3 treble 
V:2 bass 
V:1
 z4 z2[Q:1/4=100] DE | F2 FF A2 BB | A4 F2 [FA][FA] | [Fd]2 FF B2 A2 | [CE]6 [CE][DF] | %5
 [EG]2 [EG][EG] [Gc]2 [GB][Gc] | [Fd]4 [DFA]2[K:bass] [F,D][G,DE] | %7
 [A,DF]2 [B,EA][B,EG] [A,DF]2 [G,CE]2 |[M:3/4] [F,D]6 |[M:1/4] Ad |[M:4/4] c6 z2 | A6 z2 | %12
 [DB]2 [DB][DB] [CA]2 [CE]2 | F6 Ad | c6 z2 |[M:9/8] d6- d z z | %16
[M:4/4] F2 [B,EA][B,EG] [A,DF]2[K:bass] [G,CE]2 |[M:3/4] [F,D]6 |] %18
V:2
 z4 z2 [D,F,][D,G,D] | [D,A,D]2 [D,A,D][D,A,D] [D,F,D]2 [D,G,D][D,G,D] | %2
 [D,F,D]4 [D,A,D]2 [D,D][D,D] | [D,A,]2 [D,A,D][D,A,D] [D,G,D]2 [D,F,D]2 | %4
 [A,,A,]6 [A,,A,][A,,A,] | [A,,A,]2 [A,,A,][A,,A,] [A,,A,]2 [A,,A,][A,,A,] | [D,A,]4 D,2 D,D, | %7
 D,2 G,,G,, A,,2 A,,2 |[M:3/4] D,6 |[M:1/4] z2 |[M:4/4] z2 [A,E][A,E] [A,E]2 z2 | %11
 z2 [D,D][D,D] [D,D]2 [D,F,D][D,F,D] | [G,,G,]2 [G,,G,][G,,G,] [A,,E,]2 [A,,A,]2 | [D,A,D]6 z2 | %14
 z2 [A,E][A,E] [A,E]2 z2 |[M:9/8] z2 [D,A,] [D,A,] [D,A,]2- [D,A,][D,F,][D,G,D] | %16
[M:4/4] [D,A,D]2 G,,G,, A,,2 A,,2 |[M:3/4] D,6 |] %18
V:3
 x8 | x8 | x8 | x8 | x8 | x8 | x6[K:bass] x2 | x8 |[M:3/4] x6 |[M:1/4] x2 |[M:4/4] z2 GG G2 GB | %11
 z2 FF F2 AA | x8 | x8 | z2 GG G2 Bc |[M:9/8] z2 F F F2- FDE |[M:4/4] x6[K:bass] x2 |[M:3/4] x6 |] %18

